X:1
T:Some Days Are Diamonds
T:Some days are diamonds
T:(some days are stone)
T:Dick Feller
C:Dick Feller
Z:All Rights Reserved
L:1/8
Q:1/4=72
M:4/4
K:C
V:1 treble 
%%MIDI program 4
V:1
"^Soft Rock" z4 z2"^N.C." B,C |"G" D6 DD |"D" (E2 D4) ED |"G" E2 G6 | z4 B2 BA |"C" G4 G3 A | %6
w: When you|ask how I've|been * here with-|out you|I like to|say I've been|
 G4 C2 E2 |"G" D8 | z4 z2 AA |"C" G4 G3 A | G4 G,2 EG |"G" D2 G,6 | z4 z2 G,2 | G2 G2 G3 A | %14
w: fine and I|do|but we|both know the|truth is hard to|come by|and|if I told the|
"A7" B4 G2 AB |"D" A8 || z4 B,2 DE |"G" D4 B4 |"C" z4 E2 GE |"G" D8 | z4 G2 AG | B4 B4 | %22
w: truth, that's not quite|true|Some days are|dia- monds|some days are|stone|some- times the|hard times|
"A7" z2 BA BA G2 |"D" A8 | z4 B2 AG |"G" B4 B4 |"C" z2 GA GC E2 |"G" D8 |"C" z4 G2 GA | %29
w: won't * leave me a-|lone|some- times the|cold winds|blow a chill in my|bones|Some days are|
"G" (B3 G) G4 |"D7" z4 D(BA)G |"G" G8- | G6 z2 |] %33
w: dia- * monds|some days * are|stone.||

